src/assets/video.svg

<svg enable-background="new 0 0 76 76" viewBox="0 0 76 76" xmlns="http://www.w3.org/2000/svg"><path d="m72.9 14.4-16.9 10.9v-3.3c0-4.4-3.6-8-8-8h-40c-4.4 0-8 3.6-8 8v32c0 4.4 3.6 8 8 8h40c4.4 0 8-3.6 8-8v-3.3l16.9 10.9c1.9 1 3.1-.7 3.1-1.7v-43.9c0-1-1.1-2.8-3.1-1.6zm-20.9 39.6c0 2.2-1.8 4-4 4h-40c-2.2 0-4-1.8-4-4v-32c0-2.2 1.8-4 4-4h40c2.2 0 4 1.8 4 4zm20 2.3-16-10.3v-16l16-10.3z" fill="#fff"/></svg>

<?xml version="1.0" encoding="iso-8859-1"?>
<!-- Generator: Adobe Illustrator 18.1.1, SVG Export Plug-In . SVG Version: 6.00 Build 0)  -->
<svg version="1.1" id="Capa_1" xmlns="http://www.w3.org/2000/svg" xmlns:xlink="http://www.w3.org/1999/xlink" x="0px" y="0px"
	 viewBox="0 0 76 76" style="enable-background:new 0 0 76 76;" xml:space="preserve">
<g id="_x37_7_Essential_Icons_72_">
	<path id="Video_Camera" fill="#FFFFFF" d="M72.9,14.4L56,25.3V22c0-4.4-3.6-8-8-8H8c-4.4,0-8,3.6-8,8v32c0,4.4,3.6,8,8,8h40c4.4,0,8-3.6,8-8v-3.3
		l16.9,10.9c1.9,1,3.1-0.7,3.1-1.7V16C76,15,74.9,13.2,72.9,14.4z M52,54c0,2.2-1.8,4-4,4H8c-2.2,0-4-1.8-4-4V22c0-2.2,1.8-4,4-4h40
		c2.2,0,4,1.8,4,4V54z M72,56.3L56,46V30l16-10.3V56.3z"/>
</g>
<g>
</g>
<g>
</g>
<g>
</g>
<g>
</g>
<g>
</g>
<g>
</g>
<g>
</g>
<g>
</g>
<g>
</g>
<g>
</g>
<g>
</g>
<g>
</g>
<g>
</g>
<g>
</g>
<g>
</g>
</svg>
